X:0546
T:Jackson's Bouner Bougher
C:Irish
M:6/8
L:1/8
Q:3/8=120
I: :: ::
Z:Jack Campin * www.campin.me.uk * 2009
K:D
AFE TEFE|FED DED|AFE EFA|BAF dAF |
AFE  EFE|FED D2d|cBA BAF|B2A Bcd::
d2e  fdB|c2d ecA|d2e fed|f2e fga |
d2e  fdB|c2d ecA|dcB cBA|B2A Bcd:|
<end>
<start>
